images/insta.svg

<svg width="31" height="31" viewBox="0 0 31 31" fill="none" xmlns="http://www.w3.org/2000/svg">
<path d="M15.5 11.1251C14.3396 11.1251 13.2268 11.586 12.4064 12.4065C11.5859 13.227 11.125 14.3398 11.125 15.5001C11.125 16.6604 11.5859 17.7732 12.4064 18.5937C13.2268 19.4141 14.3396 19.8751 15.5 19.8751C16.6603 19.8751 17.7731 19.4141 18.5936 18.5937C19.414 17.7732 19.875 16.6604 19.875 15.5001C19.875 14.3398 19.414 13.227 18.5936 12.4065C17.7731 11.586 16.6603 11.1251 15.5 11.1251ZM15.5 8.20842C17.4338 8.20842 19.2885 8.97664 20.6559 10.3441C22.0234 11.7115 22.7916 13.5662 22.7916 15.5001C22.7916 17.434 22.0234 19.2886 20.6559 20.6561C19.2885 22.0235 17.4338 22.7918 15.5 22.7918C13.5661 22.7918 11.7114 22.0235 10.344 20.6561C8.97652 19.2886 8.20829 17.434 8.20829 15.5001C8.20829 13.5662 8.97652 11.7115 10.344 10.3441C11.7114 8.97664 13.5661 8.20842 15.5 8.20842V8.20842ZM24.9791 7.84383C24.9791 8.3273 24.7871 8.79097 24.4452 9.13283C24.1033 9.47469 23.6397 9.66675 23.1562 9.66675C22.6727 9.66675 22.2091 9.47469 21.8672 9.13283C21.5254 8.79097 21.3333 8.3273 21.3333 7.84383C21.3333 7.36036 21.5254 6.8967 21.8672 6.55484C22.2091 6.21297 22.6727 6.02092 23.1562 6.02092C23.6397 6.02092 24.1033 6.21297 24.4452 6.55484C24.7871 6.8967 24.9791 7.36036 24.9791 7.84383V7.84383ZM15.5 3.83342C11.892 3.83342 11.3029 3.84362 9.62434 3.918C8.481 3.97196 7.71392 4.12508 7.00225 4.40216C6.36933 4.64716 5.91288 4.94029 5.42725 5.42737C4.9708 5.86837 4.61985 6.40677 4.40058 7.00237C4.1235 7.71696 3.97038 8.48258 3.91788 9.62446C3.84204 11.2345 3.83329 11.7974 3.83329 15.5001C3.83329 19.108 3.8435 19.6972 3.91788 21.3757C3.97183 22.5176 4.12496 23.2861 4.40058 23.9963C4.6485 24.6307 4.94017 25.0872 5.42433 25.5713C5.91579 26.0613 6.37225 26.3545 6.99933 26.5965C7.71975 26.8751 8.48684 27.0297 9.62434 27.0822C11.2343 27.158 11.7973 27.1668 15.5 27.1668C19.1079 27.1668 19.697 27.1565 21.3756 27.0822C22.516 27.0282 23.2845 26.8751 23.9962 26.5995C24.6277 26.353 25.087 26.0599 25.5712 25.5757C26.0627 25.0843 26.3558 24.6278 26.5979 24.0007C26.875 23.2818 27.0295 22.5132 27.082 21.3757C27.1579 19.7657 27.1666 19.2028 27.1666 15.5001C27.1666 11.8922 27.1564 11.303 27.082 9.62446C27.0281 8.48404 26.875 7.71404 26.5979 7.00237C26.3781 6.40738 26.0278 5.86919 25.5727 5.42737C25.1319 4.97069 24.5934 4.6197 23.9977 4.40071C23.2831 4.12362 22.516 3.9705 21.3756 3.918C19.7656 3.84217 19.2027 3.83342 15.5 3.83342ZM15.5 0.916748C19.4623 0.916748 19.9566 0.931331 21.5112 1.00425C23.0643 1.07716 24.1216 1.32071 25.052 1.68237C26.0145 2.05279 26.8254 2.55446 27.6362 3.36383C28.3778 4.09285 28.9516 4.97469 29.3177 5.948C29.6779 6.87696 29.9229 7.93571 29.9958 9.48883C30.0643 11.0434 30.0833 11.5378 30.0833 15.5001C30.0833 19.4624 30.0687 19.9567 29.9958 21.5113C29.9229 23.0645 29.6779 24.1217 29.3177 25.0522C28.9526 26.026 28.3787 26.9081 27.6362 27.6363C26.907 28.3776 26.0252 28.9514 25.052 29.3178C24.1231 29.678 23.0643 29.923 21.5112 29.9959C19.9566 30.0645 19.4623 30.0834 15.5 30.0834C11.5377 30.0834 11.0433 30.0688 9.48871 29.9959C7.93558 29.923 6.87829 29.678 5.94788 29.3178C4.97419 28.9524 4.09219 28.3785 3.36371 27.6363C2.62201 26.9074 2.04819 26.0256 1.68225 25.0522C1.32058 24.1232 1.07704 23.0645 1.00413 21.5113C0.935584 19.9567 0.916626 19.4624 0.916626 15.5001C0.916626 11.5378 0.931209 11.0434 1.00413 9.48883C1.07704 7.93425 1.32058 6.87842 1.68225 5.948C2.04718 4.97409 2.62113 4.09201 3.36371 3.36383C4.0924 2.62188 4.97433 2.04802 5.94788 1.68237C6.87829 1.32071 7.93413 1.07716 9.48871 1.00425C11.0433 0.935706 11.5377 0.916748 15.5 0.916748Z" fill="#9777AA"/>
</svg>

<svg width="31" height="31" fill="none" xmlns="http://www.w3.org/2000/svg"><path d="M15.5 11.125a4.375 4.375 0 1 0 0 8.75 4.375 4.375 0 0 0 0-8.75Zm0-2.917a7.291 7.291 0 1 1 0 14.583 7.291 7.291 0 0 1 0-14.583Zm9.48-.364a1.823 1.823 0 1 1-3.646 0 1.823 1.823 0 0 1 3.645 0Zm-9.48-4.01c-3.608 0-4.197.01-5.876.084-1.143.054-1.91.207-2.622.484a4.21 4.21 0 0 0-1.575 1.025c-.456.441-.807.98-1.026 1.575-.277.715-.43 1.48-.483 2.622-.076 1.61-.085 2.173-.085 5.876 0 3.608.01 4.197.085 5.876.054 1.142.207 1.91.483 2.62.248.635.54 1.091 1.023 1.575.492.49.948.784 1.575 1.025.72.28 1.488.434 2.625.486 1.61.076 2.173.085 5.876.085 3.608 0 4.197-.01 5.876-.085 1.14-.054 1.909-.207 2.62-.483a4.26 4.26 0 0 0 1.575-1.023A4.216 4.216 0 0 0 26.598 24c.277-.72.431-1.488.484-2.625.076-1.61.085-2.173.085-5.876 0-3.608-.01-4.197-.085-5.876-.054-1.14-.207-1.91-.484-2.622a4.246 4.246 0 0 0-1.025-1.575 4.206 4.206 0 0 0-1.575-1.026c-.715-.277-1.482-.43-2.622-.483-1.61-.076-2.173-.085-5.876-.085Zm0-2.917c3.962 0 4.457.014 6.011.087 1.553.073 2.61.317 3.541.678a7.11 7.11 0 0 1 2.584 1.682 7.157 7.157 0 0 1 1.682 2.584c.36.929.605 1.988.678 3.54.068 1.555.087 2.05.087 6.012 0 3.962-.014 4.457-.087 6.011-.073 1.553-.318 2.61-.678 3.541a7.12 7.12 0 0 1-1.682 2.584 7.167 7.167 0 0 1-2.584 1.682c-.929.36-1.988.605-3.54.678-1.555.069-2.05.087-6.012.087-3.962 0-4.457-.014-6.011-.087-1.553-.073-2.61-.318-3.541-.678a7.132 7.132 0 0 1-2.584-1.682 7.151 7.151 0 0 1-1.682-2.584c-.361-.929-.605-1.988-.678-3.54-.068-1.555-.087-2.05-.087-6.012 0-3.962.014-4.457.087-6.011.073-1.555.317-2.61.678-3.541a7.117 7.117 0 0 1 1.682-2.584 7.142 7.142 0 0 1 2.584-1.682c.93-.361 1.986-.605 3.54-.678C11.044.936 11.539.917 15.5.917Z" fill="#9777AA"/></svg>
